X: 38
T: Good Morning Fair Maid
M: 3/4
L: 1/4
B: "O'Neill's 38"
N: "Moderate" "collected by F. O'Neill"
Z: "Transcribed by Norbert Paap, norbertp@bdu.uva.nl"
K:G
G/2A/2 | B A G | E G E | D B, D | E G G |\
G2 D | G A B | c2 d/2c/2 | B A G |
B d B | A2 D | G A B | c2 d/2c/2 |\
B A G | B d B | A2 G/2A/2 | B A G |\
E G E | D B, D | E G G | G2 :|


